!!!SOCIAL_FUNCTION: drunken-man dance songs
!!!PDT:	1943
!!!LING_GROUP: Muskogean
!!!LANG: Non-Tone
Specific Region: Oklahoma, California, Mississippi, Louisiana, Texas, Alabama
!!!REG: Southeast
!!!COM: Anon.
!!!OTL: Drunken-man Dance Song (c)
!!!ODT: <1933//
!!!MPN: Lysander Tubby
!!!MLC: Philadelphia, Mississippi, United States of America
!! Song was recorded in January 1933.
!!!AGN: monody
!!!AMT: simple duple
!!!RWG: Transcribed pitches, durations, and meters are only approximate.
**kern
*ICvox
*Imale
*clefF4
*k[f#c#g#]
*M2/4
*MM100
=1-
4F#
8F#
8F#
=2
8F#
[8F#
8F#]
8F#
=3
4E
8C#
8C#
=4
4C#
8F#
8r
=5
8F#
[8F#
8F#]
8F#+
=6
4F#
8.F#
16E#
=7
8F#
8F#
4F#
=8
4A
8A
8F#
=9
4B
4A
=10
8A
[8F#
8F#]
8F#+
=11
8F#
8F#
8F#
8r
=12
8F#
8F#
4F#
=13
8F#
[8F#
8F#]
8F#
=14
4E
8C#
8C#
=15
4C#
8F#
8r
=16
8F#
[8F#
8F#]
8F#+
=17
4F#
8.F#
16E#
=18
8F#
8F#
4F#
=19
4A
8F#
8F#
=20
4B
4A
=21
8A
[8F#
8F#]
8F#+
=22
8F#
8F#
8F#
8r
=23
8F#
8F#
4F#
=24
8F#
[8F#
8F#]
8F#
=25
4E
(8E
8C#)
=26
4C#
8F#
8r
=27
8F#
[8F#
8F#]
8F#+
=28
4F#
8.F#
16E#
=29
8F#
8F#
4F#
=30
4B
8F#
8F#
=31
4B
4A
=32
8A
[8F#
8F#]
8E#
=33
8F#
8F#
8F#
8r
=34
4F#
4A
=35
8E
[8E
8E]
8C#
=36
4E
8C#
8C#
=37
4C#
8F#
8r
=38
8F#
[8F#
8F#]
8F#+
=39
4F#
8.F#
16E#
=40
8F#
8F#
4F#
=41
4A
8A
8F#
=42
4B
4A
=43
8A
[8F#
8F#]
8F#+
=44
8F#
8F#
8F#
8r
=45
4F#
4A
=46
8E
[8E
8E]
8C#
=47
4E
8C#
8C#
=48
4C#
8F#
8r
=49
8F#
[8F#
8F#]
8E#
=50
4F#
8.F#
16E#
=51
8F#
8F#
4F#
=52
!! repeat from measure 5
8F#
[8F#
8F#]
8F#+
=53
4F#
8.F#
16E#
=54
8F#
8F#
4F#
=55
4A
8A
8F#
=56
4B
4A
=57
8A
[8F#
8F#]
8F#+
=58
8F#
8F#
8F#
8r
=59
8F#
8F#
4F#
=60
8F#
[8F#
8F#]
8F#
=61
4E
8C#
8C#
=62
4C#
8F#
8r
=63
8F#
[8F#
8F#]
8F#+
=64
4F#
8.F#
16E#
=65
8F#
8F#
4F#
=66
4A
8F#
8F#
=67
4B
4A
=68
8A
[8F#
8F#]
8F#+
=69
8F#
8F#
8F#
8r
=70
8F#
8F#
4F#
=71
8F#
[8F#
8F#]
8F#
=72
4E
(8E
8C#)
=73
4C#
8F#
8r
=74
8F#
[8F#
8F#]
8F#+
=75
4F#
8.F#
16E#
=76
8F#
8F#
4F#
=77
4B
8F#
8F#
=78
4B
4A
=79
8A
[8F#
8F#]
8E#
=80
8F#
8F#
8F#
8r
=81
4F#
4A
=82
8E
[8E
8E]
8C#
=83
4E
8C#
8C#
=84
4C#
8F#
8r
=85
8F#
[8F#
8F#]
8F#+
=86
4F#
8.F#
16E#
=87
8F#
8F#
4F#
=88
4A
8A
8F#
=89
4B
4A
=90
8A
[8F#
8F#]
8F#+
=91
8F#
8F#
8F#
8r
=92
4F#
4A
=93
8E
[8E
8E]
8C#
=94
4E
8C#
8C#
=95
4C#
8F#
8r
=96
8F#
[8F#
8F#]
8E#
=97
4F#
8.F#
16E#
=98
8F#
8F#
4F#
==
*-
!!!CNT: Choctaw
!!!TXO: Choctaw
!!!OCY: United States
!!!OCL: Frances Densmore
!!!YOR: Frances Densmore, "Choctaw Music"
!!!YOR: Bulletin 136, page 145, No. 23
!!!PPR: Smithsonian Institution, Bureau of American Ethnology
!!!PPR: Government Printing Office
!!!PDT: 1943
!!!PPP: Washington, DC, United States of America
!!!YEC: Electronic Copyright 2000 David Huron
!!!YER: August 2000
!!!YEN: United States of America
!!!ENC: David Huron
!!!RDT: August 27, 2000
!!!EEV: Release 1.0
!!!AIN: vox
